X: 14002
T: Frank Neylon's
R: reel
M: 4/4
K: Adorian
||g|e2ed cA A2|A2eA BAG2|e2ed cdef|gage dBGd|
e2ed cA A2|A2eA BAG2|e2ed cdef|gage dBGc||
c2ec gceg|g2eg dBGB|c2ec gceg|abge dBGc|
c2ec gceg|g2eg dBGB|c3d egg2|abge d4||

